synths/sKRW.svg

<svg width="42" height="42" viewBox="0 0 42 42" fill="none" xmlns="http://www.w3.org/2000/svg">
<g clip-path="url(#clip0_7277_57808)">
<mask id="mask0_7277_57808" style="mask-type:alpha" maskUnits="userSpaceOnUse" x="0" y="0" width="42" height="42">
<circle cx="21" cy="21" r="21" fill="url(#paint0_linear_7277_57808)"/>
</mask>
<g mask="url(#mask0_7277_57808)">
<circle cx="21" cy="21" r="21" fill="#34EDB3"/>
<circle cx="21" cy="21" r="18.2" fill="white"/>
</g>
<circle cx="21" cy="21" r="16.1" fill="#06061B"/>
<circle cx="21" cy="21" r="16.1" fill="#06061B"/>
<path d="M29.2005 21.4235H26.9955L26.1765 28.3326H23.0685L22.0395 21.4235H20.2335L19.0995 28.3326H15.9285L15.0885 21.4235H12.8625V19.5335H14.8575L14.1645 13.7375H16.6635L17.1465 19.5335H18.8685L19.8345 13.8845H22.6275L23.5305 19.5335H25.1685L25.6725 13.7375H27.8985L27.2055 19.5335H29.2005V21.4235ZM21.7665 19.5335L21.1785 15.6065L20.5275 19.5335H21.7665ZM18.5535 21.4235H17.3145L17.7345 26.3166L18.5535 21.4235ZM25.0005 21.4235H23.8245L24.5805 26.2745L25.0005 21.4235Z" fill="white"/>
</g>
<defs>
<linearGradient id="paint0_linear_7277_57808" x1="21" y1="0" x2="21" y2="61.4091" gradientUnits="userSpaceOnUse">
<stop stop-color="#08021E"/>
<stop offset="1" stop-color="#1F0777"/>
</linearGradient>
<clipPath id="clip0_7277_57808">
<rect width="42" height="42" fill="white"/>
</clipPath>
</defs>
</svg>

<svg xmlns="http://www.w3.org/2000/svg" width="42" height="42" fill="none"><g clip-path="url(#a)"><mask id="c" width="42" height="42" x="0" y="0" maskUnits="userSpaceOnUse" style="mask-type:alpha"><circle cx="21" cy="21" r="21" fill="url(#b)"/></mask><g mask="url(#c)"><circle cx="21" cy="21" r="21" fill="#34EDB3"/><circle cx="21" cy="21" r="18.2" fill="#fff"/></g><circle cx="21" cy="21" r="16.1" fill="#06061B"/><circle cx="21" cy="21" r="16.1" fill="#06061B"/><path fill="#fff" d="M29.2 21.424h-2.204l-.82 6.909H23.07l-1.03-6.91h-1.806l-1.134 6.91h-3.17l-.84-6.91h-2.226v-1.89h1.995l-.694-5.796h2.5l.482 5.796h1.723l.965-5.649h2.794l.902 5.65h1.639l.503-5.796h2.226l-.692 5.796H29.2v1.89Zm-7.433-1.89-.588-3.927-.651 3.927h1.239Zm-3.213 1.89h-1.24l.42 4.893.82-4.893Zm6.447 0h-1.177l.756 4.85.42-4.85Z"/></g><defs><linearGradient id="b" x1="21" x2="21" y1="0" y2="61.409" gradientUnits="userSpaceOnUse"><stop stop-color="#08021E"/><stop offset="1" stop-color="#1F0777"/></linearGradient><clipPath id="a"><path fill="#fff" d="M0 0h42v42H0z"/></clipPath></defs></svg>
